movi20.svg

<?xml version="1.0" encoding="UTF-8" standalone="no"?>
<!-- Created with Inkscape (http://www.inkscape.org/) -->

<svg
   xmlns:dc="http://purl.org/dc/elements/1.1/"
   xmlns:cc="http://creativecommons.org/ns#"
   xmlns:rdf="http://www.w3.org/1999/02/22-rdf-syntax-ns#"
   xmlns:svg="http://www.w3.org/2000/svg"
   xmlns="http://www.w3.org/2000/svg"
   xmlns:inkscape="http://www.inkscape.org/namespaces/inkscape"
   version="1.1"
   width="405"
   height="180"
   id="svg2"
   xml:space="preserve"><metadata
     id="metadata8"><rdf:RDF><cc:Work
         rdf:about=""><dc:format>image/svg+xml</dc:format><dc:type
           rdf:resource="http://purl.org/dc/dcmitype/StillImage" /></cc:Work></rdf:RDF></metadata><defs
     id="defs6"><clipPath
       id="clipPath16"><path
         d="M 0,0 324,0 324,144 0,144 0,0 z"
         inkscape:connector-curvature="0"
         id="path18" /></clipPath></defs><g
     transform="matrix(1.25,0,0,-1.25,0,180)"
     id="g10"><g
       id="g12"><g
         clip-path="url(#clipPath16)"
         id="g14"><path
           d="M 0,144 324,144 324,0 0,0 0,144 z"
           inkscape:connector-curvature="0"
           id="path20"
           style="fill:#ffffff;fill-opacity:0;fill-rule:evenodd;stroke:none" /><g
           id="g22"><path
             d="m 219.1,90.2 0,-33.4"
             inkscape:connector-curvature="0"
             id="path24"
             style="fill:none;stroke:#000000;stroke-width:0.69999999;stroke-linecap:butt;stroke-linejoin:miter;stroke-miterlimit:10;stroke-opacity:1;stroke-dasharray:none" /></g><path
           d="m 219.1,43.4 4.7,14 -9.3,0 4.6,-14 z"
           inkscape:connector-curvature="0"
           id="path26"
           style="fill:#000000;fill-opacity:1;fill-rule:evenodd;stroke:none" /><path
           d="m 222.7,11 -79.2,0 0,32.4 158.4,0 0,-32.4 -79.2,0 z"
           inkscape:connector-curvature="0"
           id="path28"
           style="fill:#ffffff;fill-opacity:1;fill-rule:evenodd;stroke:none" /><g
           id="g30"><path
             d="m 222.7,11 -79.2,0 0,32.4 158.4,0 0,-32.4 -79.2,0 z"
             inkscape:connector-curvature="0"
             id="path32"
             style="fill:none;stroke:#000000;stroke-width:0.70749998;stroke-linecap:butt;stroke-linejoin:round;stroke-miterlimit:10;stroke-opacity:1;stroke-dasharray:none" /></g><g
           id="g34"><text
             transform="matrix(1,0,0,-1,206.4,23.4)"
             id="text36"><tspan
               x="0 6.1929998 12.298 15.389 21.493999 23.892 27.082001"
               y="0"
               id="tspan38"
               style="font-size:11px;font-variant:normal;font-weight:normal;writing-mode:lr-tb;fill:#1a1a1a;fill-opacity:1;fill-rule:nonzero;stroke:none;font-family:Liberation Sans;-inkscape-font-specification:LiberationSans">20 bits</tspan></text>
</g><path
           d="m 98.2,11 -45.4,0 0,32.4 90.7,0 0,-32.4 -45.3,0 z"
           inkscape:connector-curvature="0"
           id="path40"
           style="fill:#ffffff;fill-opacity:1;fill-rule:evenodd;stroke:none" /><g
           id="g42"><path
             d="m 98.2,11 -45.4,0 0,32.4 90.7,0 0,-32.4 -45.3,0 z"
             inkscape:connector-curvature="0"
             id="path44"
             style="fill:none;stroke:#000000;stroke-width:0.70749998;stroke-linecap:butt;stroke-linejoin:round;stroke-miterlimit:10;stroke-opacity:1;stroke-dasharray:none" /></g><g
           id="g46"><text
             transform="matrix(1,0,0,-1,62.1,23.4)"
             id="text48"><tspan
               x="0 7.3039999 9.7019997 15.807 21.912001 25.003 31.195999 36.695999 39.786999 45.891998 51.997002 57.584999 59.983002 66.087997"
               y="0"
               id="tspan50"
               style="font-size:11px;font-variant:normal;font-weight:normal;writing-mode:lr-tb;fill:#1a1a1a;fill-opacity:1;fill-rule:nonzero;stroke:none;font-family:Liberation Sans;-inkscape-font-specification:LiberationSans">Sign extension</tspan></text>
</g><g
           id="g52"><text
             transform="matrix(1,0,0,-1,141.1,125)"
             id="text54"><tspan
               x="0 6.1929998"
               y="0"
               id="tspan56"
               style="font-size:11px;font-variant:normal;font-weight:normal;writing-mode:lr-tb;fill:#1a1a1a;fill-opacity:1;fill-rule:nonzero;stroke:none;font-family:Liberation Sans;-inkscape-font-specification:LiberationSans">19</tspan></text>
</g><g
           id="g58"><text
             transform="matrix(1,0,0,-1,141.1,45.6)"
             id="text60"><tspan
               x="0 6.1929998"
               y="0"
               id="tspan62"
               style="font-size:11px;font-variant:normal;font-weight:normal;writing-mode:lr-tb;fill:#1a1a1a;fill-opacity:1;fill-rule:nonzero;stroke:none;font-family:Liberation Sans;-inkscape-font-specification:LiberationSans">19</tspan></text>
</g><g
           id="g64"><text
             transform="matrix(1,0,0,-1,294.2,125)"
             id="text66"><tspan
               x="0"
               y="0"
               id="tspan68"
               style="font-size:11px;font-variant:normal;font-weight:normal;writing-mode:lr-tb;fill:#1a1a1a;fill-opacity:1;fill-rule:nonzero;stroke:none;font-family:Liberation Sans;-inkscape-font-specification:LiberationSans">0</tspan></text>
</g><g
           id="g70"><text
             transform="matrix(1,0,0,-1,297,45.6)"
             id="text72"><tspan
               x="0"
               y="0"
               id="tspan74"
               style="font-size:11px;font-variant:normal;font-weight:normal;writing-mode:lr-tb;fill:#1a1a1a;fill-opacity:1;fill-rule:nonzero;stroke:none;font-family:Liberation Sans;-inkscape-font-specification:LiberationSans">0</tspan></text>
</g><g
           id="g76"><text
             transform="matrix(1,0,0,-1,53.3,45.6)"
             id="text78"><tspan
               x="0 6.105"
               y="0"
               id="tspan80"
               style="font-size:11px;font-variant:normal;font-weight:normal;writing-mode:lr-tb;fill:#1a1a1a;fill-opacity:1;fill-rule:nonzero;stroke:none;font-family:Liberation Sans;-inkscape-font-specification:LiberationSans">31</tspan></text>
</g><path
           d="m 222.7,90.4 -79.2,0 0,32.4 158.4,0 0,-32.4 -79.2,0 z"
           inkscape:connector-curvature="0"
           id="path82"
           style="fill:#ffffff;fill-opacity:1;fill-rule:evenodd;stroke:none" /><g
           id="g84"><path
             d="m 222.7,90.4 -79.2,0 0,32.4 158.4,0 0,-32.4 -79.2,0 z"
             inkscape:connector-curvature="0"
             id="path86"
             style="fill:none;stroke:#000000;stroke-width:0.70749998;stroke-linecap:butt;stroke-linejoin:round;stroke-miterlimit:10;stroke-opacity:1;stroke-dasharray:none" /></g><g
           id="g88"><text
             transform="matrix(1,0,0,-1,206.4,102.8)"
             id="text90"><tspan
               x="0 6.105 12.298 15.389 21.493999 23.892 26.983"
               y="0"
               id="tspan92"
               style="font-size:11px;font-variant:normal;font-weight:normal;writing-mode:lr-tb;fill:#1a1a1a;fill-opacity:1;fill-rule:nonzero;stroke:none;font-family:Liberation Sans;-inkscape-font-specification:LiberationSans">20 bits</tspan></text>
</g><g
           id="g94"><text
             transform="matrix(1,0,0,-1,13.8,105.5)"
             id="text96"><tspan
               x="0 2.398 11.682"
               y="0"
               id="tspan98"
               style="font-size:11px;font-variant:normal;font-weight:normal;writing-mode:lr-tb;fill:#1a1a1a;fill-opacity:1;fill-rule:nonzero;stroke:none;font-family:Liberation Sans;-inkscape-font-specification:LiberationSans">imm</tspan></text>
</g><g
           id="g100"><text
             transform="matrix(1,0,0,-1,16.4,23)"
             id="text102"><tspan
               x="0 7.8979998"
               y="0"
               id="tspan104"
               style="font-size:11px;font-variant:normal;font-weight:normal;writing-mode:lr-tb;fill:#1a1a1a;fill-opacity:1;fill-rule:nonzero;stroke:none;font-family:Liberation Sans;-inkscape-font-specification:LiberationSans">Rn</tspan></text>
</g></g></g></g></svg>

<svg xmlns="http://www.w3.org/2000/svg" width="405" height="180" xml:space="preserve"><defs><clipPath id="a"><path d="M0 0h324v144H0V0z"/></clipPath></defs><g clip-path="url(#a)" transform="matrix(1.25 0 0 -1.25 0 180)"><path d="M0 144h324V0H0v144z" style="fill:#fff;fill-opacity:0;fill-rule:evenodd;stroke:none"/><path d="M219.1 90.2V56.8" style="fill:none;stroke:#000;stroke-width:.69999999;stroke-linecap:butt;stroke-linejoin:miter;stroke-miterlimit:10;stroke-opacity:1;stroke-dasharray:none"/><path d="m219.1 43.4 4.7 14h-9.3l4.6-14z" style="fill:#000;fill-opacity:1;fill-rule:evenodd;stroke:none"/><path d="M222.7 11h-79.2v32.4h158.4V11h-79.2z" style="fill:#fff;fill-opacity:1;fill-rule:evenodd;stroke:none"/><path d="M222.7 11h-79.2v32.4h158.4V11h-79.2z" style="fill:none;stroke:#000;stroke-width:.70749998;stroke-linecap:butt;stroke-linejoin:round;stroke-miterlimit:10;stroke-opacity:1;stroke-dasharray:none"/><text transform="matrix(1 0 0 -1 206.4 23.4)"><tspan x="0 6.1929998 12.298 15.389 21.493999 23.892 27.082001" y="0" style="font-size:11px;font-variant:normal;font-weight:400;writing-mode:lr-tb;fill:#1a1a1a;fill-opacity:1;fill-rule:nonzero;stroke:none;font-family:Liberation Sans;-inkscape-font-specification:LiberationSans">20 bits</tspan></text><path d="M98.2 11H52.8v32.4h90.7V11H98.2z" style="fill:#fff;fill-opacity:1;fill-rule:evenodd;stroke:none"/><path d="M98.2 11H52.8v32.4h90.7V11H98.2z" style="fill:none;stroke:#000;stroke-width:.70749998;stroke-linecap:butt;stroke-linejoin:round;stroke-miterlimit:10;stroke-opacity:1;stroke-dasharray:none"/><text transform="matrix(1 0 0 -1 62.1 23.4)"><tspan x="0 7.3039999 9.7019997 15.807 21.912001 25.003 31.195999 36.695999 39.786999 45.891998 51.997002 57.584999 59.983002 66.087997" y="0" style="font-size:11px;font-variant:normal;font-weight:400;writing-mode:lr-tb;fill:#1a1a1a;fill-opacity:1;fill-rule:nonzero;stroke:none;font-family:Liberation Sans;-inkscape-font-specification:LiberationSans">Sign extension</tspan></text><text transform="matrix(1 0 0 -1 141.1 125)"><tspan x="0 6.1929998" y="0" style="font-size:11px;font-variant:normal;font-weight:400;writing-mode:lr-tb;fill:#1a1a1a;fill-opacity:1;fill-rule:nonzero;stroke:none;font-family:Liberation Sans;-inkscape-font-specification:LiberationSans">19</tspan></text><text transform="matrix(1 0 0 -1 141.1 45.6)"><tspan x="0 6.1929998" y="0" style="font-size:11px;font-variant:normal;font-weight:400;writing-mode:lr-tb;fill:#1a1a1a;fill-opacity:1;fill-rule:nonzero;stroke:none;font-family:Liberation Sans;-inkscape-font-specification:LiberationSans">19</tspan></text><text transform="matrix(1 0 0 -1 294.2 125)"><tspan x="0" y="0" style="font-size:11px;font-variant:normal;font-weight:400;writing-mode:lr-tb;fill:#1a1a1a;fill-opacity:1;fill-rule:nonzero;stroke:none;font-family:Liberation Sans;-inkscape-font-specification:LiberationSans">0</tspan></text><text transform="matrix(1 0 0 -1 297 45.6)"><tspan x="0" y="0" style="font-size:11px;font-variant:normal;font-weight:400;writing-mode:lr-tb;fill:#1a1a1a;fill-opacity:1;fill-rule:nonzero;stroke:none;font-family:Liberation Sans;-inkscape-font-specification:LiberationSans">0</tspan></text><text transform="matrix(1 0 0 -1 53.3 45.6)"><tspan x="0 6.105" y="0" style="font-size:11px;font-variant:normal;font-weight:400;writing-mode:lr-tb;fill:#1a1a1a;fill-opacity:1;fill-rule:nonzero;stroke:none;font-family:Liberation Sans;-inkscape-font-specification:LiberationSans">31</tspan></text><path d="M222.7 90.4h-79.2v32.4h158.4V90.4h-79.2z" style="fill:#fff;fill-opacity:1;fill-rule:evenodd;stroke:none"/><path d="M222.7 90.4h-79.2v32.4h158.4V90.4h-79.2z" style="fill:none;stroke:#000;stroke-width:.70749998;stroke-linecap:butt;stroke-linejoin:round;stroke-miterlimit:10;stroke-opacity:1;stroke-dasharray:none"/><text transform="matrix(1 0 0 -1 206.4 102.8)"><tspan x="0 6.105 12.298 15.389 21.493999 23.892 26.983" y="0" style="font-size:11px;font-variant:normal;font-weight:400;writing-mode:lr-tb;fill:#1a1a1a;fill-opacity:1;fill-rule:nonzero;stroke:none;font-family:Liberation Sans;-inkscape-font-specification:LiberationSans">20 bits</tspan></text><text transform="matrix(1 0 0 -1 13.8 105.5)"><tspan x="0 2.398 11.682" y="0" style="font-size:11px;font-variant:normal;font-weight:400;writing-mode:lr-tb;fill:#1a1a1a;fill-opacity:1;fill-rule:nonzero;stroke:none;font-family:Liberation Sans;-inkscape-font-specification:LiberationSans">imm</tspan></text><text transform="matrix(1 0 0 -1 16.4 23)"><tspan x="0 7.8979998" y="0" style="font-size:11px;font-variant:normal;font-weight:400;writing-mode:lr-tb;fill:#1a1a1a;fill-opacity:1;fill-rule:nonzero;stroke:none;font-family:Liberation Sans;-inkscape-font-specification:LiberationSans">Rn</tspan></text></g></svg>
